imgs/painting-icon.svg

<svg width="100" height="91" viewBox="0 0 100 91" fill="none" xmlns="http://www.w3.org/2000/svg">
<path d="M0.00410337 21.803C2.4374 10.4777 14.8994 3.83022 25.3876 1.58978C46.3558 -2.887 68.1693 9.84166 75.58 29.6158C80.5287 25.771 85.1614 21.4665 90.3563 17.9335C92.2151 16.6697 95.8343 14.0148 98.087 14.4292C99.2319 14.6385 99.9746 15.6726 99.9992 16.8215C100.061 19.382 96.4293 24.1994 94.8741 26.3577C89.9008 33.2514 84.152 39.5993 78.6535 46.0703C78.1898 78.9671 42.9336 101.281 13.2785 85.1755C8.21085 82.4221 2.77388 77.8428 0.832985 72.2376L0.00410337 69.2585V64.7653C0.701677 61.3103 2.11324 58.3189 4.68605 55.8774C7.85386 52.8696 13.2334 50.8262 13.2949 45.7298C13.3606 40.3215 7.76358 38.3806 4.48909 35.1841C2.05579 32.8083 0.771434 29.9646 0 26.686V21.803H0.00410337ZM64.6404 38.9838C65.0262 39.0659 65.1657 38.8936 65.4324 38.7007C67.7672 37.006 69.8846 34.3716 72.2686 32.6482C72.6749 32.123 72.244 31.4459 72.0635 30.8797C67.2748 15.849 50.2499 4.96276 34.8705 4.4129C23.4303 4.00257 1.02174 12.2093 4.00079 26.8871C5.65035 35.0076 16.3314 35.6683 17.0044 44.5439C17.8538 55.701 5.66266 55.5532 3.96796 64.5232C1.60032 77.0385 18.2518 84.8308 28.2846 86.3819C43.6435 88.7537 59.5769 81.0229 68.0462 68.2614C71.4397 63.1486 73.7787 57.0346 74.4065 50.9C71.7803 53.6411 69.2855 56.5176 66.6962 59.2996C65.1493 60.9615 62.0553 63.5097 60.931 65.2495C60.3155 66.2015 59.8067 68.8441 59.2076 70.1695C54.3574 80.908 41.4195 82.5534 31.3949 78.3885C30.3978 77.9741 29.3063 77.3955 29.5689 76.0865C29.9341 74.2564 32.1048 74.6339 33.3399 73.9856C35.7158 72.7382 36.0358 67.9742 36.6554 65.586C37.9357 60.666 39.7083 57.0715 44.6529 55.0321C46.044 54.4576 48.8548 54.1581 49.7083 53.6411C50.8121 52.9763 53.4013 49.866 54.579 48.7499C57.5211 45.9637 60.5617 43.2759 63.4669 40.4528C63.7705 39.7429 62.1702 40.8303 61.9774 40.9165C52.3755 45.0076 45.7444 31.7332 54.3574 26.6573C62.3836 21.9261 70.6109 31.9753 64.6404 38.992V38.9838ZM94.7141 19.6569C94.5828 19.5215 92.9578 20.6869 92.6993 20.8633C87.1803 24.6548 81.6366 29.4271 76.5484 33.8095C68.5222 40.7236 60.8161 48.0277 53.2043 55.3932L53.3028 55.8856L59.0763 61.6385C66.8399 53.719 74.386 45.5287 81.5381 37.0388C85.5307 32.2953 89.8229 27.1702 93.3148 22.0615C93.5241 21.7538 94.8946 19.8375 94.7182 19.6569H94.7141ZM57.956 29.2752C52.1908 30.059 53.3192 38.8525 59.6179 37.7692C64.5953 36.9116 63.6105 28.5079 57.956 29.2752ZM64.2506 39.5747C64.0373 39.3613 63.6474 39.7511 63.8608 39.9645C64.0742 40.1779 64.464 39.7881 64.2506 39.5747ZM36.914 76.0865C41.403 76.8251 46.2163 77.0467 50.3238 74.7529C53.8116 72.8038 56.2039 68.7948 56.9384 64.9623L49.7985 57.6296C46.204 57.9619 42.9993 59.5664 41.4359 62.9352C39.8725 66.3041 39.9792 70.8014 38.1942 74.1456C37.8085 74.8678 37.1889 75.3602 36.9181 76.0906L36.914 76.0865Z" fill="#E9562A"/>
<path d="M39.2118 12.6771C49.3225 11.5035 51.9241 25.9926 42.5314 28.4956C31.0666 31.5485 28.0835 13.9697 39.2118 12.6771ZM39.9956 16.3784C34.3821 16.6779 34.7884 25.2088 40.3074 25.1021C46.1424 24.9872 45.9454 16.0583 39.9956 16.3784Z" fill="#E9562A"/>
<path d="M17.1357 18.9183C25.7569 17.5765 30.5004 28.1099 23.697 33.2883C17.7061 37.8472 9.13001 32.4553 10.8001 25.0775C11.4566 22.1805 14.1813 19.3779 17.1398 18.9183H17.1357ZM17.9194 22.6318C12.5645 23.4812 13.5945 32.0778 19.5854 31.1299C24.9034 30.2846 23.935 21.6799 17.9194 22.6318Z" fill="#E9562A"/>
<path d="M20.0738 58.7662C30.8533 57.5311 32.4619 73.7763 21.9531 74.8965C11.3213 76.0332 9.5281 59.9726 20.0738 58.7662ZM20.8616 62.4633C15.1087 62.7834 15.5519 71.1666 20.997 71.2035C26.9141 71.2445 26.7089 62.1351 20.8616 62.4633Z" fill="#E9562A"/>
</svg>

<?xml version="1.0" encoding="UTF-8"?>
<svg id="_圖層_1" data-name="圖層_1" xmlns="http://www.w3.org/2000/svg" version="1.1" viewBox="0 0 100 91">
  <!-- Generator: Adobe Illustrator 29.5.1, SVG Export Plug-In . SVG Version: 2.1.0 Build 141)  -->
  <defs>
    <style>
      .st0 {
        fill: #299ea7;
      }
    </style>
  </defs>
  <path class="st0" d="M0,21.8C2.44,10.48,14.9,3.83,25.39,1.59c20.97-4.48,42.78,8.25,50.19,28.03,4.95-3.84,9.58-8.15,14.78-11.68,1.86-1.26,5.48-3.92,7.73-3.5,1.14.21,1.89,1.24,1.91,2.39.06,2.56-3.57,7.38-5.13,9.54-4.97,6.89-10.72,13.24-16.22,19.71-.46,32.9-35.72,55.21-65.38,39.11-5.07-2.75-10.5-7.33-12.45-12.94L0,69.26v-4.49c.7-3.45,2.11-6.45,4.68-8.89,3.17-3.01,8.55-5.05,8.61-10.15.07-5.41-5.53-7.35-8.81-10.55-2.43-2.38-3.72-5.22-4.49-8.5v-4.88h0ZM64.64,38.98c.39.08.53-.09.79-.28,2.33-1.69,4.45-4.33,6.84-6.05.41-.53-.02-1.2-.21-1.77-4.79-15.03-21.81-25.92-37.19-26.47C23.43,4,1.02,12.21,4,26.89c1.65,8.12,12.33,8.78,13,17.66.85,11.16-11.34,11.01-13.04,19.98-2.37,12.52,14.28,20.31,24.32,21.86,15.36,2.37,31.29-5.36,39.76-18.12,3.39-5.11,5.73-11.23,6.36-17.36-2.63,2.74-5.12,5.62-7.71,8.4-1.55,1.66-4.64,4.21-5.77,5.95-.62.95-1.12,3.59-1.72,4.92-4.85,10.74-17.79,12.38-27.81,8.22-1-.41-2.09-.99-1.83-2.3.37-1.83,2.54-1.45,3.77-2.1,2.38-1.25,2.7-6.01,3.32-8.4,1.28-4.92,3.05-8.51,8-10.55,1.39-.57,4.2-.87,5.06-1.39,1.1-.66,3.69-3.78,4.87-4.89,2.94-2.79,5.98-5.47,8.89-8.3.3-.71-1.3.38-1.49.46-9.6,4.09-16.23-9.18-7.62-14.26,8.03-4.73,16.25,5.32,10.28,12.33h0ZM94.71,19.66c-.13-.14-1.76,1.03-2.01,1.21-5.52,3.79-11.06,8.56-16.15,12.95-8.03,6.91-15.73,14.22-23.34,21.58l.1.49,5.77,5.75c7.76-7.92,15.31-16.11,22.46-24.6,3.99-4.74,8.28-9.87,11.78-14.98.21-.31,1.58-2.22,1.4-2.4h0ZM57.96,29.28c-5.77.78-4.64,9.58,1.66,8.49,4.98-.86,3.99-9.26-1.66-8.49ZM64.25,39.57c-.21-.21-.6.18-.39.39.21.21.6-.18.39-.39ZM36.91,76.09c4.49.74,9.3.96,13.41-1.33,3.49-1.95,5.88-5.96,6.61-9.79l-7.14-7.33c-3.59.33-6.8,1.94-8.36,5.31-1.56,3.37-1.46,7.87-3.24,11.21-.39.72-1.01,1.21-1.28,1.94h0Z"/>
  <path class="st0" d="M39.21,12.68c10.11-1.17,12.71,13.32,3.32,15.82-11.46,3.05-14.45-14.53-3.32-15.82ZM40,16.38c-5.61.3-5.21,8.83.31,8.72,5.83-.11,5.64-9.04-.31-8.72Z"/>
  <path class="st0" d="M17.14,18.92c8.62-1.34,13.36,9.19,6.56,14.37-5.99,4.56-14.57-.83-12.9-8.21.66-2.9,3.38-5.7,6.34-6.16h0ZM17.92,22.63c-5.35.85-4.32,9.45,1.67,8.5,5.32-.85,4.35-9.45-1.67-8.5Z"/>
  <path class="st0" d="M20.07,58.77c10.78-1.24,12.39,15.01,1.88,16.13-10.63,1.14-12.43-14.92-1.88-16.13ZM20.86,62.46c-5.75.32-5.31,8.7.14,8.74,5.92.04,5.71-9.07-.14-8.74Z"/>
</svg>
